X:1
T:Ionia, 87.87.87
T:Ionia, 87.87.87
T:Asa Brooks Everett (1828-1875)
T:Public Domain Courtesy of the Cyber Hymnal™
C:Asa Brooks Everett (1828-1875)
Z:Public Domain
Z:Courtesy of the Cyber Hymnal™
%%score ( 1 2 ) ( 3 4 )
L:1/8
Q:1/4=108
M:4/4
K:F
V:1 treble 
V:2 treble 
V:3 bass 
V:4 bass 
V:1
 [FA]2 [FA]2 [FA]2 [FA]2 | ([FA][EG]) ([FA][GB]) [Ac]2 [FA]2 | [Fd]2 [Fc]2 [EB]2 [FA]2 | %3
 [CG]2 F2 [Ec]4 | [FA]2 [FA]2 [FA]2 [FA]2 | ([FA][EG]) ([FA][GB]) [Ac]2 [FA]2 | %6
 [Fd]2 [^Fc]2 [GB]2 (cB) | [FA]2 [EG]2 F4 | [EG]2 ([EG][FA]) [GB]2 [EG]2 | %9
 [FA]2 [FA][GB] [Ac]2 [FA]2 | [Fd]2 [^Fc]2 [GB]2 (cB) | [FA]2 [EG]2 F4 |] %12
V:2
 x8 | x8 | x8 | x2 F2 x4 | x8 | x8 | x6 =F2 | x4 F4 | x8 | x8 | x6 =F2 | x4 F4 |] %12
V:3
 [F,C]2 [F,C]2 [F,C]2 [F,C]2 | [F,C]2 [F,C]2 [F,C]2 [F,C]2 | B,2 [A,C]2 [G,C]2 [F,C]2 | %3
 [E,C]2 [D,=B,]2 [C,C]4 | [F,C]2 [F,C]2 [F,C]2 [F,C]2 | [F,C]2 [F,C]2 [F,C]2 [F,C]2 | %6
 B,2 [A,C]2 [G,D]2 ([A,C][B,D]) | C2 [C,B,]2 [F,A,]4 | [C,C]2 [C,C]2 [C,C]2 [C,C]2 | %9
 [F,C]2 [F,C]2 [F,C]2 [F,C]2 | B,2 [A,C]2 [G,D]2 ([A,C][B,D]) | C2 [C,B,]2 [F,A,]4 |] %12
V:4
 x8 | x8 | B,2 x6 | x8 | x8 | x8 | B,2 x6 | C2 x6 | x8 | x8 | B,2 x6 | C2 x6 |] %12

